assets/svg/description.svg

<?xml version="1.0" encoding="UTF-8"?>
<svg width="1000px" height="1000px" viewBox="0 0 1000 1000" version="1.1" xmlns="http://www.w3.org/2000/svg" xmlns:xlink="http://www.w3.org/1999/xlink">
    <!-- Generator: sketchtool 52.4 (67378) - http://www.bohemiancoding.com/sketch -->
    <title>description</title>
    <desc>Created with sketchtool.</desc>
    <g id="新版图标" stroke="none" stroke-width="1" fill="none" fill-rule="evenodd">
        <g id="description" fill="#323233">
            <g id="圆角-描述-线">
                <path d="M611.111111,865.888889 L611.111111,722.222222 L754.777778,722.222222 L611.111111,865.888889 Z M222.222222,888.888889 L222.222222,111.111111 L777.777778,111.111111 L777.777778,666.666667 L611.111111,666.666667 C580.388889,666.666667 555.555556,691.5 555.555556,722.222222 L555.555556,888.888889 L222.222222,888.888889 Z M777.777778,55.5555556 L222.222222,55.5555556 C191.5,55.5555556 166.666667,80.3888889 166.666667,111.111111 L166.666667,888.888889 C166.666667,919.611111 191.5,944.444444 222.222222,944.444444 L588.111111,944.444444 C602.833333,944.444444 616.944444,938.611111 627.388889,928.166667 L666.666667,888.888889 L777.777778,777.777778 L817.055556,738.5 C827.5,728.111111 833.333333,713.944444 833.333333,699.222222 L833.333333,111.111111 C833.333333,80.3888889 808.5,55.5555556 777.777778,55.5555556 Z M638.888889,222.227778 L361.111111,222.227778 C345.777778,222.227778 333.333333,234.672222 333.333333,250.005556 C333.333333,265.338889 345.777778,277.783333 361.111111,277.783333 L638.888889,277.783333 C654.222222,277.783333 666.666667,265.338889 666.666667,250.005556 C666.666667,234.672222 654.222222,222.227778 638.888889,222.227778 M638.888889,333.338889 L361.111111,333.338889 C345.777778,333.338889 333.333333,345.783333 333.333333,361.116667 C333.333333,376.45 345.777778,388.894444 361.111111,388.894444 L638.888889,388.894444 C654.222222,388.894444 666.666667,376.45 666.666667,361.116667 C666.666667,345.783333 654.222222,333.338889 638.888889,333.338889 M527.777778,444.45 L361.111111,444.45 C345.777778,444.45 333.333333,456.894444 333.333333,472.227778 C333.333333,487.561111 345.777778,500.005556 361.111111,500.005556 L527.777778,500.005556 C543.111111,500.005556 555.555556,487.561111 555.555556,472.227778 C555.555556,456.894444 543.111111,444.45 527.777778,444.45" id="Fill-1"></path>
            </g>
        </g>
    </g>
</svg>

<svg width="1000" height="1000" xmlns="http://www.w3.org/2000/svg"><path d="M611.111 865.889V722.222h143.667L611.11 865.89zm-388.889 23V111.11h555.556v555.556H611.11c-30.722 0-55.555 24.833-55.555 55.555V888.89H222.222zM777.778 55.556H222.222c-30.722 0-55.555 24.833-55.555 55.555V888.89c0 30.722 24.833 55.555 55.555 55.555h365.89a55.505 55.505 0 0 0 39.277-16.277l39.278-39.278 111.11-111.111 39.279-39.278c10.444-10.389 16.277-24.556 16.277-39.278v-588.11c0-30.723-24.833-55.556-55.555-55.556zm-138.89 166.672H361.112c-15.333 0-27.778 12.444-27.778 27.778 0 15.333 12.445 27.777 27.778 27.777H638.89c15.333 0 27.778-12.444 27.778-27.777 0-15.334-12.445-27.778-27.778-27.778m0 111.11H361.11c-15.333 0-27.778 12.445-27.778 27.779 0 15.333 12.445 27.777 27.778 27.777H638.89c15.333 0 27.778-12.444 27.778-27.777 0-15.334-12.445-27.778-27.778-27.778M527.778 444.45H361.11c-15.333 0-27.778 12.444-27.778 27.778 0 15.333 12.445 27.778 27.778 27.778h166.667c15.333 0 27.778-12.445 27.778-27.778 0-15.334-12.445-27.778-27.778-27.778" fill="#323233" fill-rule="evenodd"/></svg>
